icons/modern/globe-with-meridians.svg

<svg width="32" height="32" viewBox="0 0 32 32" fill="none" xmlns="http://www.w3.org/2000/svg">
<g filter="url(#filter0_i_18_4808)">
<path fill-rule="evenodd" clip-rule="evenodd" d="M2 16C2 23.72 8.28 30 16 30C23.72 30 30 23.72 30 16C30 8.28 23.72 2 16 2C8.28 2 2 8.28 2 16ZM4.25845 15C4.14149 15 4.04934 14.9 4.06109 14.7836C4.23161 13.0951 4.7532 11.5091 5.55162 10.1C5.58679 10.0379 5.65284 10 5.72419 10H8.86354C9.00529 10 9.10216 10.1434 9.05158 10.2758C8.50219 11.7142 8.15879 13.2395 8.04342 14.8124C8.03569 14.9178 7.94839 15 7.84271 15H4.25845ZM10.2499 15C10.1339 15 10.0421 14.9016 10.052 14.786C10.1929 13.1487 10.6171 11.5718 11.2919 10.1146C11.3244 10.0444 11.3949 10 11.4721 10H14.8C14.9105 10 15 10.0895 15 10.2V14.8C15 14.9105 14.9105 15 14.8 15H10.2499ZM15 17.2C15 17.0895 14.9105 17 14.8 17H10.2499C10.1339 17 10.0421 17.0984 10.052 17.214C10.1929 18.8513 10.6171 20.4282 11.2919 21.8854C11.3244 21.9556 11.3949 22 11.4721 22H14.8C14.9105 22 15 21.9105 15 21.8V17.2ZM15 24.2C15 24.0895 14.9105 24 14.8 24H12.8891C12.7275 24 12.6333 24.1813 12.7293 24.3113C13.2984 25.0824 13.9495 25.7989 14.6754 26.4483C14.8021 26.5617 15 26.4703 15 26.3002V24.2ZM19.5553 27.0732C19.4122 27.2223 19.5528 27.4657 19.7491 27.4011C21.6233 26.7838 23.2945 25.7167 24.6344 24.3278C24.7545 24.2034 24.6645 24 24.4915 24H21.9802C21.9087 24 21.8428 24.0382 21.8066 24.0998C21.1784 25.1696 20.4241 26.1678 19.5553 27.0732ZM22.9483 21.7241C22.8977 21.8565 22.9945 22 23.1363 22L26.2459 22.0004C26.3351 22.0004 26.4177 21.953 26.4615 21.8753C27.2521 20.4723 27.7694 18.8951 27.9389 17.2164C27.9507 17.1 27.8585 17 27.7416 17H24.1573C24.0516 17 23.9643 17.0822 23.9566 17.1876C23.8412 18.7606 23.4978 20.2861 22.9483 21.7241ZM21.7501 17C21.8661 17 21.9579 17.0984 21.948 17.214C21.8071 18.8513 21.3829 20.4282 20.7081 21.8854C20.6756 21.9556 20.6052 22 20.5279 22H17.2C17.0895 22 17 21.9105 17 21.8V17.2C17 17.0895 17.0895 17 17.2 17H21.7501ZM23.9566 14.8124C23.9643 14.9178 24.0516 15 24.1573 15H27.7416C27.8585 15 27.9507 14.9 27.9389 14.7836C27.7694 13.1049 27.2521 11.5277 26.4615 10.1247C26.4177 10.047 26.3351 9.99961 26.2459 9.99962L23.1364 10C22.9947 10 22.8978 10.1434 22.9484 10.2758C23.4978 11.7142 23.8412 13.2395 23.9566 14.8124ZM20.5279 10C20.6051 10 20.6756 10.0444 20.708 10.1146C21.3829 11.5718 21.8071 13.1487 21.948 14.786C21.9579 14.9016 21.8661 15 21.7501 15H17.2C17.0895 15 17 14.9105 17 14.8V10.2C17 10.0895 17.0895 10 17.2 10H20.5279ZM21.8074 7.90017C21.8435 7.96181 21.9095 8 21.981 8H24.4915C24.6645 8 24.7545 7.79661 24.6344 7.67215C23.2959 6.28483 21.6269 5.21847 19.7552 4.6009C19.5591 4.53619 19.4183 4.77932 19.5611 4.92851C20.4278 5.83408 21.1804 6.83153 21.8074 7.90017ZM17.3246 5.55173C17.1979 5.43836 17 5.52978 17 5.69982V7.8C17 7.91046 17.0895 8 17.2 8H19.1109C19.2725 8 19.3667 7.81872 19.2707 7.6887C18.7015 6.91763 18.0505 6.20115 17.3246 5.55173ZM15 5.69979C15 5.52976 14.8021 5.43833 14.6754 5.5517C13.9495 6.20113 13.2985 6.91762 12.7293 7.6887C12.6333 7.81872 12.7275 8 12.8891 8H14.8C14.9105 8 15 7.91046 15 7.8V5.69979ZM17.2 24C17.0895 24 17 24.0895 17 24.2V26.3003C17 26.4703 17.1979 26.5617 17.3246 26.4483C18.0505 25.7989 18.7016 25.0824 19.2708 24.3113C19.3667 24.1813 19.2725 24 19.1109 24H17.2ZM5.55162 21.9C5.58679 21.9621 5.65284 22 5.72419 22H8.86636C9.00817 22 9.10505 21.8564 9.05434 21.724C8.50357 20.2853 8.15927 18.7599 8.04357 17.1876C8.03581 17.0822 7.94851 17 7.84285 17H4.25845C4.14149 17 4.04934 17.1 4.06109 17.2164C4.23161 18.9049 4.75321 20.4909 5.55162 21.9ZM12.2588 27.4037C12.455 27.4682 12.5955 27.2249 12.4525 27.0759C11.5824 26.1691 10.827 25.1701 10.1977 24.0997C10.1616 24.0381 10.0957 24 10.0242 24H7.50846C7.33553 24 7.24552 24.2034 7.3656 24.3278C8.70741 25.7186 10.3814 26.7868 12.2588 27.4037ZM10.019 8C10.0905 8 10.1564 7.96181 10.1926 7.90017C10.8196 6.83153 11.5722 5.8341 12.4388 4.92853C12.5816 4.77934 12.4409 4.53621 12.2448 4.60092C10.3731 5.2185 8.70406 6.28485 7.36559 7.67215C7.24552 7.79661 7.33553 8 7.50846 8H10.019Z" fill="url(#paint0_linear_18_4808)"/>
</g>
<path fill-rule="evenodd" clip-rule="evenodd" d="M16 30C8.28 30 2 23.72 2 16C2 8.28 8.28 2 16 2C23.72 2 30 8.28 30 16C30 23.72 23.72 30 16 30ZM16 29.5312C23.0761 29.5312 29.6875 23.0761 29.6875 16C29.6875 8.92385 23.0761 2.43748 16 2.43748C8.92385 2.43748 2.40625 8.92385 2.40625 16C2.40625 23.0761 8.92385 29.5312 16 29.5312Z" fill="url(#paint1_linear_18_4808)"/>
<g filter="url(#filter1_f_18_4808)">
<path fill-rule="evenodd" clip-rule="evenodd" d="M16 29.8282C8.37478 29.8282 2.17188 23.6252 2.17188 16C2.17188 8.37478 8.37478 2.17188 16 2.17188C23.6252 2.17188 29.8282 8.37478 29.8282 16C29.8282 23.6252 23.6252 29.8282 16 29.8282ZM16 29.2031C23.2919 29.2031 29.2031 23.2919 29.2031 16C29.2031 8.70813 23.2919 2.79689 16 2.79689C8.70813 2.79689 2.79689 8.70813 2.79689 16C2.79689 23.2919 8.70813 29.2031 16 29.2031Z" fill="url(#paint2_radial_18_4808)"/>
</g>
<g filter="url(#filter2_f_18_4808)">
<path d="M16.3125 3.8125L16.3125 28.1875" stroke="url(#paint3_linear_18_4808)" stroke-width="0.75" stroke-linecap="round"/>
</g>
<g filter="url(#filter3_f_18_4808)">
<path d="M17.125 3.6875C19.125 5 23.125 9.325 23.125 16.125C23.125 22.925 18.625 27.6667 16.375 29.1875" stroke="url(#paint4_linear_18_4808)" stroke-width="0.75" stroke-linecap="round"/>
</g>
<g filter="url(#filter4_f_18_4808)">
<path d="M15.25 3.6875C13.25 5 9.25 9.325 9.25 16.125C9.25 22.925 13.75 27.6667 16 29.1875" stroke="url(#paint5_linear_18_4808)" stroke-width="0.75" stroke-linecap="round"/>
</g>
<g filter="url(#filter5_f_18_4808)">
<path d="M6.6875 8.625H26" stroke="url(#paint6_linear_18_4808)" stroke-width="0.75" stroke-linecap="round"/>
</g>
<g filter="url(#filter6_f_18_4808)">
<path d="M6.625 22.75H26" stroke="url(#paint7_linear_18_4808)" stroke-opacity="0.75" stroke-width="0.75" stroke-linecap="round"/>
</g>
<g filter="url(#filter7_f_18_4808)">
<path d="M3.6875 15.6875H29" stroke="url(#paint8_linear_18_4808)" stroke-opacity="0.75" stroke-width="0.75" stroke-linecap="round"/>
</g>
<defs>
<filter id="filter0_i_18_4808" x="2" y="1.5" width="28.5" height="28.5" filterUnits="userSpaceOnUse" color-interpolation-filters="sRGB">
<feFlood flood-opacity="0" result="BackgroundImageFix"/>
<feBlend mode="normal" in="SourceGraphic" in2="BackgroundImageFix" result="shape"/>
<feColorMatrix in="SourceAlpha" type="matrix" values="0 0 0 0 0 0 0 0 0 0 0 0 0 0 0 0 0 0 127 0" result="hardAlpha"/>
<feOffset dx="0.5" dy="-0.5"/>
<feGaussianBlur stdDeviation="0.375"/>
<feComposite in2="hardAlpha" operator="arithmetic" k2="-1" k3="1"/>
<feColorMatrix type="matrix" values="0 0 0 0 0.211765 0 0 0 0 0.54902 0 0 0 0 0.901961 0 0 0 1 0"/>
<feBlend mode="normal" in2="shape" result="effect1_innerShadow_18_4808"/>
</filter>
<filter id="filter1_f_18_4808" x="1.67188" y="1.67188" width="28.6562" height="28.6562" filterUnits="userSpaceOnUse" color-interpolation-filters="sRGB">
<feFlood flood-opacity="0" result="BackgroundImageFix"/>
<feBlend mode="normal" in="SourceGraphic" in2="BackgroundImageFix" result="shape"/>
<feGaussianBlur stdDeviation="0.25" result="effect1_foregroundBlur_18_4808"/>
</filter>
<filter id="filter2_f_18_4808" x="15.1875" y="2.6875" width="2.25" height="26.625" filterUnits="userSpaceOnUse" color-interpolation-filters="sRGB">
<feFlood flood-opacity="0" result="BackgroundImageFix"/>
<feBlend mode="normal" in="SourceGraphic" in2="BackgroundImageFix" result="shape"/>
<feGaussianBlur stdDeviation="0.375" result="effect1_foregroundBlur_18_4808"/>
</filter>
<filter id="filter3_f_18_4808" x="15.25" y="2.5625" width="9" height="27.75" filterUnits="userSpaceOnUse" color-interpolation-filters="sRGB">
<feFlood flood-opacity="0" result="BackgroundImageFix"/>
<feBlend mode="normal" in="SourceGraphic" in2="BackgroundImageFix" result="shape"/>
<feGaussianBlur stdDeviation="0.375" result="effect1_foregroundBlur_18_4808"/>
</filter>
<filter id="filter4_f_18_4808" x="8.125" y="2.5625" width="9" height="27.75" filterUnits="userSpaceOnUse" color-interpolation-filters="sRGB">
<feFlood flood-opacity="0" result="BackgroundImageFix"/>
<feBlend mode="normal" in="SourceGraphic" in2="BackgroundImageFix" result="shape"/>
<feGaussianBlur stdDeviation="0.375" result="effect1_foregroundBlur_18_4808"/>
</filter>
<filter id="filter5_f_18_4808" x="5.5625" y="7.5" width="21.5625" height="2.25" filterUnits="userSpaceOnUse" color-interpolation-filters="sRGB">
<feFlood flood-opacity="0" result="BackgroundImageFix"/>
<feBlend mode="normal" in="SourceGraphic" in2="BackgroundImageFix" result="shape"/>
<feGaussianBlur stdDeviation="0.375" result="effect1_foregroundBlur_18_4808"/>
</filter>
<filter id="filter6_f_18_4808" x="5.5" y="21.625" width="21.625" height="2.25" filterUnits="userSpaceOnUse" color-interpolation-filters="sRGB">
<feFlood flood-opacity="0" result="BackgroundImageFix"/>
<feBlend mode="normal" in="SourceGraphic" in2="BackgroundImageFix" result="shape"/>
<feGaussianBlur stdDeviation="0.375" result="effect1_foregroundBlur_18_4808"/>
</filter>
<filter id="filter7_f_18_4808" x="2.5625" y="14.5625" width="27.5625" height="2.25" filterUnits="userSpaceOnUse" color-interpolation-filters="sRGB">
<feFlood flood-opacity="0" result="BackgroundImageFix"/>
<feBlend mode="normal" in="SourceGraphic" in2="BackgroundImageFix" result="shape"/>
<feGaussianBlur stdDeviation="0.375" result="effect1_foregroundBlur_18_4808"/>
</filter>
<linearGradient id="paint0_linear_18_4808" x1="25.5" y1="3.68748" x2="9.6875" y2="30" gradientUnits="userSpaceOnUse">
<stop stop-color="#5CCFFF"/>
<stop offset="1" stop-color="#44B3FF"/>
</linearGradient>
<linearGradient id="paint1_linear_18_4808" x1="25.0625" y1="4.43748" x2="5.375" y2="32.625" gradientUnits="userSpaceOnUse">
<stop stop-color="#B5F5F5"/>
<stop offset="1" stop-color="#3A6DD3"/>
</linearGradient>
<radialGradient id="paint2_radial_18_4808" cx="0" cy="0" r="1" gradientUnits="userSpaceOnUse" gradientTransform="translate(26.1875 8.4375) rotate(128.166) scale(27.207 27.207)">
<stop offset="0.489105" stop-color="#7FFFFF"/>
<stop offset="1" stop-color="#3C68D0"/>
</radialGradient>
<linearGradient id="paint3_linear_18_4808" x1="16.8125" y1="3.8125" x2="16.8125" y2="35.125" gradientUnits="userSpaceOnUse">
<stop stop-color="#76F6FF"/>
<stop offset="1" stop-color="#76F6FF" stop-opacity="0"/>
</linearGradient>
<linearGradient id="paint4_linear_18_4808" x1="19.75" y1="3.6875" x2="19.75" y2="36.4452" gradientUnits="userSpaceOnUse">
<stop stop-color="#76F6FF"/>
<stop offset="1" stop-color="#76F6FF" stop-opacity="0"/>
</linearGradient>
<linearGradient id="paint5_linear_18_4808" x1="-1.1875" y1="9.0625" x2="26" y2="30.625" gradientUnits="userSpaceOnUse">
<stop stop-color="#76F6FF"/>
<stop offset="1" stop-color="#76F6FF" stop-opacity="0"/>
</linearGradient>
<linearGradient id="paint6_linear_18_4808" x1="1.4375" y1="9.90961" x2="30.3125" y2="9.90898" gradientUnits="userSpaceOnUse">
<stop stop-color="#76F6FF"/>
<stop offset="1" stop-color="#76F6FF" stop-opacity="0"/>
</linearGradient>
<linearGradient id="paint7_linear_18_4808" x1="19.25" y1="13.75" x2="19.2503" y2="28.375" gradientUnits="userSpaceOnUse">
<stop stop-color="#76F6FF"/>
<stop offset="1" stop-color="#76F6FF" stop-opacity="0"/>
</linearGradient>
<linearGradient id="paint8_linear_18_4808" x1="-3.19357" y1="16.9721" x2="34.6523" y2="16.971" gradientUnits="userSpaceOnUse">
<stop stop-color="#76F6FF"/>
<stop offset="1" stop-color="#76F6FF" stop-opacity="0"/>
</linearGradient>
</defs>
</svg>

<svg width="32" height="32" fill="none" xmlns="http://www.w3.org/2000/svg"><g filter="url(#a)"><path fill-rule="evenodd" clip-rule="evenodd" d="M2 16c0 7.72 6.28 14 14 14s14-6.28 14-14S23.72 2 16 2 2 8.28 2 16Zm2.258-1c-.117 0-.209-.1-.197-.216.17-1.689.692-3.275 1.49-4.684a.198.198 0 0 1 .173-.1h3.14c.141 0 .238.143.188.276a15.981 15.981 0 0 0-1.009 4.536.202.202 0 0 1-.2.188H4.258Zm5.992 0a.198.198 0 0 1-.198-.214c.14-1.637.565-3.214 1.24-4.671a.198.198 0 0 1 .18-.115H14.8c.11 0 .2.09.2.2v4.6a.2.2 0 0 1-.2.2h-4.55ZM15 17.2a.2.2 0 0 0-.2-.2h-4.55a.198.198 0 0 0-.198.214c.14 1.637.565 3.214 1.24 4.671.032.07.103.115.18.115H14.8a.2.2 0 0 0 .2-.2v-4.6Zm0 7a.2.2 0 0 0-.2-.2h-1.91a.196.196 0 0 0-.16.311 14.11 14.11 0 0 0 1.945 2.137A.195.195 0 0 0 15 26.3v-2.1Zm4.555 2.873c-.143.15-.002.393.194.328a12.018 12.018 0 0 0 4.885-3.073.194.194 0 0 0-.143-.328h-2.51a.202.202 0 0 0-.174.1 15.984 15.984 0 0 1-2.252 2.973Zm3.393-5.349a.203.203 0 0 0 .188.276h3.11c.09 0 .172-.047.216-.125a11.915 11.915 0 0 0 1.477-4.659.197.197 0 0 0-.197-.216h-3.585a.202.202 0 0 0-.2.188 15.974 15.974 0 0 1-1.009 4.536ZM21.75 17c.116 0 .208.098.198.214a13.954 13.954 0 0 1-1.24 4.671.198.198 0 0 1-.18.115H17.2a.2.2 0 0 1-.2-.2v-4.6c0-.11.09-.2.2-.2h4.55Zm2.207-2.188a.202.202 0 0 0 .2.188h3.585c.116 0 .209-.1.197-.216a11.915 11.915 0 0 0-1.477-4.66.247.247 0 0 0-.216-.124h-3.11a.203.203 0 0 0-.188.276c.55 1.438.893 2.963 1.009 4.536ZM20.527 10c.078 0 .149.044.181.115a13.952 13.952 0 0 1 1.24 4.671.198.198 0 0 1-.198.214H17.2a.2.2 0 0 1-.2-.2v-4.6c0-.11.09-.2.2-.2h3.328Zm1.28-2.1c.037.062.103.1.174.1h2.51a.194.194 0 0 0 .143-.328 12.019 12.019 0 0 0-4.879-3.071c-.196-.065-.337.178-.194.328A16.03 16.03 0 0 1 21.807 7.9Zm-4.482-2.348A.195.195 0 0 0 17 5.7v2.1c0 .11.09.2.2.2h1.91a.196.196 0 0 0 .16-.311 14.117 14.117 0 0 0-1.945-2.137ZM15 5.7a.195.195 0 0 0-.325-.148 14.118 14.118 0 0 0-1.946 2.137.196.196 0 0 0 .16.311H14.8a.2.2 0 0 0 .2-.2V5.7ZM17.2 24a.2.2 0 0 0-.2.2v2.1c0 .17.198.262.325.148a14.116 14.116 0 0 0 1.946-2.137.196.196 0 0 0-.16-.311H17.2ZM5.552 21.9c.035.062.1.1.172.1h3.142a.203.203 0 0 0 .188-.276 15.954 15.954 0 0 1-1.01-4.536.202.202 0 0 0-.201-.188H4.258c-.117 0-.209.1-.197.216.17 1.689.692 3.275 1.49 4.684Zm6.707 5.504c.196.064.336-.18.194-.328a16.04 16.04 0 0 1-2.255-2.976.201.201 0 0 0-.174-.1H7.508a.194.194 0 0 0-.142.328 12.019 12.019 0 0 0 4.893 3.076ZM10.019 8a.202.202 0 0 0 .174-.1 16.033 16.033 0 0 1 2.246-2.971c.143-.15.002-.393-.194-.328a12.02 12.02 0 0 0-4.88 3.071.194.194 0 0 0 .143.328h2.511Z" fill="url(#b)"/></g><path fill-rule="evenodd" clip-rule="evenodd" d="M16 30C8.28 30 2 23.72 2 16S8.28 2 16 2s14 6.28 14 14-6.28 14-14 14Zm0-.469c7.076 0 13.688-6.455 13.688-13.531 0-7.076-6.612-13.563-13.688-13.563C8.924 2.437 2.406 8.924 2.406 16c0 7.076 6.518 13.531 13.594 13.531Z" fill="url(#c)"/><g filter="url(#d)"><path fill-rule="evenodd" clip-rule="evenodd" d="M16 29.828C8.375 29.828 2.172 23.625 2.172 16 2.172 8.375 8.375 2.172 16 2.172c7.625 0 13.828 6.203 13.828 13.828 0 7.625-6.203 13.828-13.828 13.828Zm0-.625c7.292 0 13.203-5.911 13.203-13.203S23.292 2.797 16 2.797 2.797 8.708 2.797 16 8.708 29.203 16 29.203Z" fill="url(#e)"/></g><g filter="url(#f)"><path d="M16.313 3.813v24.375" stroke="url(#g)" stroke-width=".75" stroke-linecap="round"/></g><g filter="url(#h)"><path d="M17.125 3.688c2 1.312 6 5.637 6 12.437s-4.5 11.542-6.75 13.063" stroke="url(#i)" stroke-width=".75" stroke-linecap="round"/></g><g filter="url(#j)"><path d="M15.25 3.688c-2 1.312-6 5.637-6 12.437s4.5 11.542 6.75 13.063" stroke="url(#k)" stroke-width=".75" stroke-linecap="round"/></g><g filter="url(#l)"><path d="M6.688 8.625H26" stroke="url(#m)" stroke-width=".75" stroke-linecap="round"/></g><g filter="url(#n)"><path d="M6.625 22.75H26" stroke="url(#o)" stroke-opacity=".75" stroke-width=".75" stroke-linecap="round"/></g><g filter="url(#p)"><path d="M3.688 15.688H29" stroke="url(#q)" stroke-opacity=".75" stroke-width=".75" stroke-linecap="round"/></g><defs><linearGradient id="b" x1="25.5" y1="3.687" x2="9.688" y2="30" gradientUnits="userSpaceOnUse"><stop stop-color="#5CCFFF"/><stop offset="1" stop-color="#44B3FF"/></linearGradient><linearGradient id="c" x1="25.063" y1="4.437" x2="5.375" y2="32.625" gradientUnits="userSpaceOnUse"><stop stop-color="#B5F5F5"/><stop offset="1" stop-color="#3A6DD3"/></linearGradient><linearGradient id="g" x1="16.813" y1="3.813" x2="16.813" y2="35.125" gradientUnits="userSpaceOnUse"><stop stop-color="#76F6FF"/><stop offset="1" stop-color="#76F6FF" stop-opacity="0"/></linearGradient><linearGradient id="i" x1="19.75" y1="3.688" x2="19.75" y2="36.445" gradientUnits="userSpaceOnUse"><stop stop-color="#76F6FF"/><stop offset="1" stop-color="#76F6FF" stop-opacity="0"/></linearGradient><linearGradient id="k" x1="-1.188" y1="9.063" x2="26" y2="30.625" gradientUnits="userSpaceOnUse"><stop stop-color="#76F6FF"/><stop offset="1" stop-color="#76F6FF" stop-opacity="0"/></linearGradient><linearGradient id="m" x1="1.438" y1="9.91" x2="30.313" y2="9.909" gradientUnits="userSpaceOnUse"><stop stop-color="#76F6FF"/><stop offset="1" stop-color="#76F6FF" stop-opacity="0"/></linearGradient><linearGradient id="o" x1="19.25" y1="13.75" x2="19.25" y2="28.375" gradientUnits="userSpaceOnUse"><stop stop-color="#76F6FF"/><stop offset="1" stop-color="#76F6FF" stop-opacity="0"/></linearGradient><linearGradient id="q" x1="-3.194" y1="16.972" x2="34.652" y2="16.971" gradientUnits="userSpaceOnUse"><stop stop-color="#76F6FF"/><stop offset="1" stop-color="#76F6FF" stop-opacity="0"/></linearGradient><filter id="a" x="2" y="1.5" width="28.5" height="28.5" filterUnits="userSpaceOnUse" color-interpolation-filters="sRGB"><feFlood flood-opacity="0" result="BackgroundImageFix"/><feBlend in="SourceGraphic" in2="BackgroundImageFix" result="shape"/><feColorMatrix in="SourceAlpha" values="0 0 0 0 0 0 0 0 0 0 0 0 0 0 0 0 0 0 127 0" result="hardAlpha"/><feOffset dx=".5" dy="-.5"/><feGaussianBlur stdDeviation=".375"/><feComposite in2="hardAlpha" operator="arithmetic" k2="-1" k3="1"/><feColorMatrix values="0 0 0 0 0.211765 0 0 0 0 0.54902 0 0 0 0 0.901961 0 0 0 1 0"/><feBlend in2="shape" result="effect1_innerShadow_18_4808"/></filter><filter id="d" x="1.672" y="1.672" width="28.656" height="28.656" filterUnits="userSpaceOnUse" color-interpolation-filters="sRGB"><feFlood flood-opacity="0" result="BackgroundImageFix"/><feBlend in="SourceGraphic" in2="BackgroundImageFix" result="shape"/><feGaussianBlur stdDeviation=".25" result="effect1_foregroundBlur_18_4808"/></filter><filter id="f" x="15.188" y="2.688" width="2.25" height="26.625" filterUnits="userSpaceOnUse" color-interpolation-filters="sRGB"><feFlood flood-opacity="0" result="BackgroundImageFix"/><feBlend in="SourceGraphic" in2="BackgroundImageFix" result="shape"/><feGaussianBlur stdDeviation=".375" result="effect1_foregroundBlur_18_4808"/></filter><filter id="h" x="15.25" y="2.563" width="9" height="27.75" filterUnits="userSpaceOnUse" color-interpolation-filters="sRGB"><feFlood flood-opacity="0" result="BackgroundImageFix"/><feBlend in="SourceGraphic" in2="BackgroundImageFix" result="shape"/><feGaussianBlur stdDeviation=".375" result="effect1_foregroundBlur_18_4808"/></filter><filter id="j" x="8.125" y="2.563" width="9" height="27.75" filterUnits="userSpaceOnUse" color-interpolation-filters="sRGB"><feFlood flood-opacity="0" result="BackgroundImageFix"/><feBlend in="SourceGraphic" in2="BackgroundImageFix" result="shape"/><feGaussianBlur stdDeviation=".375" result="effect1_foregroundBlur_18_4808"/></filter><filter id="l" x="5.563" y="7.5" width="21.563" height="2.25" filterUnits="userSpaceOnUse" color-interpolation-filters="sRGB"><feFlood flood-opacity="0" result="BackgroundImageFix"/><feBlend in="SourceGraphic" in2="BackgroundImageFix" result="shape"/><feGaussianBlur stdDeviation=".375" result="effect1_foregroundBlur_18_4808"/></filter><filter id="n" x="5.5" y="21.625" width="21.625" height="2.25" filterUnits="userSpaceOnUse" color-interpolation-filters="sRGB"><feFlood flood-opacity="0" result="BackgroundImageFix"/><feBlend in="SourceGraphic" in2="BackgroundImageFix" result="shape"/><feGaussianBlur stdDeviation=".375" result="effect1_foregroundBlur_18_4808"/></filter><filter id="p" x="2.563" y="14.563" width="27.563" height="2.25" filterUnits="userSpaceOnUse" color-interpolation-filters="sRGB"><feFlood flood-opacity="0" result="BackgroundImageFix"/><feBlend in="SourceGraphic" in2="BackgroundImageFix" result="shape"/><feGaussianBlur stdDeviation=".375" result="effect1_foregroundBlur_18_4808"/></filter><radialGradient id="e" cx="0" cy="0" r="1" gradientUnits="userSpaceOnUse" gradientTransform="rotate(128.166 11.044 10.582) scale(27.207)"><stop offset=".489" stop-color="#7FFFFF"/><stop offset="1" stop-color="#3C68D0"/></radialGradient></defs></svg>
